X:19
%%etbk:tnset id:244,pos:3,rep:3x,ant:
%%etbk:wsite http://www.thesession.org/tunes/display/227
%%etbk:wsite http://comhaltas.ie/music/detail/comhaltaslive_266_5_joan_hanrahan_dymphna_osullivan
%%etbk:pldat 2016-07-24T17:13,2015-07-07T11:53,2014-12-31T15:35,2014-12-30T17:34,2014-12-17T19:00,2014-12-16T17:48,2014-09-11T19:05,2014-05-05T19:07,2014-04-30T16:00,2014-03-23T15:59,2014-03-14T18:34,2014-02-12T19:14,2014-02-10T18:38,2014-02-08T14:41,2013-11-20T15:27,2013-11-16T15:50,2013-11-12T18:15,2013-11-06T18:23,2013-11-05T18:24,2013-09-29T14:36,2013-09-26T15:46,2013-09-15T16:57,2013-05-22T16:19,2013-05-06T18:49,2013-05-05T15:21,2013-05-01T15:32,2013-04-30T17:26
T: Crooked Road To Dublin, The
Z: Piano Box Version by Martin Fleischmann
H: Created 2013-02-19 /  Last Modified 2013-11-05
M: 4/4
L: 1/8
R: Reel
K: Gmaj
|: "G"!3!G3 G !2!FGAF | !3!GG !2!F!3!G "D"!2!A!5!d!4!c!2!A | "G"!1!G2A!1!G "D"!2!F!5!d!3!d!5!g |1 !4!f!3!d!2!c!1!A !4!d!2!B!3!c!1!A :|2 !4!f!2!d!1!c!2!A !5!d2 !3!B!4!c|
"G"!1!d!3!ggg !2!fgaf | !1!d!3!g!2!g!3!g !4!a!3!g!2!f!1!e | !1!d!3!ggg !2!fgag |!2!f!1!d!3!c!1!A "D"!4!d2!2!B!3!c|
"G"!1!d!3!ggg !2!fgaf | d2!3!gg !4!a2!3!ga | !5!bg!4!af !3!gbag | "D"!2!f!1!d!3!c!1!A !4!d!2!B!3!c!1!A|


